src/standard/website.svg

<svg xmlns="http://www.w3.org/2000/svg" viewBox="0 0 36 36">
  <path d="M10 11.37a.62.62 0 0 0-.61.63.61.61 0 0 0 .61.62.62.62 0 0 0 .63-.62.63.63 0 0 0-.63-.63Zm-2 0a.62.62 0 0 0-.61.63.61.61 0 0 0 .61.62.62.62 0 0 0 .62-.62.63.63 0 0 0-.62-.63Z"/>
  <path d="M31 8.38H5a.62.62 0 0 0-.62.62v18a.62.62 0 0 0 .62.62h26a.62.62 0 0 0 .62-.62V9a.62.62 0 0 0-.62-.62Zm-.62 18H5.62V9.62h24.76Z"/>
  <path d="M18 15.38H8a.62.62 0 0 0-.62.62v8a.62.62 0 0 0 .62.62h10a.62.62 0 0 0 .62-.62v-8a.62.62 0 0 0-.62-.62Zm-.62 8H8.62v-6.76h8.76ZM13 12.62h15a.62.62 0 1 0 0-1.24H13a.62.62 0 0 0 0 1.24Zm15 3.76h-7a.62.62 0 0 0 0 1.24h7a.62.62 0 0 0 0-1.24Zm0 3h-7a.62.62 0 0 0 0 1.24h7a.62.62 0 0 0 0-1.24Zm-4 3h-3a.62.62 0 0 0 0 1.24h3a.62.62 0 0 0 0-1.24Z"/>
</svg>

<svg id="eeb3b526-bcc8-470a-a99a-06a1ceef5c52" data-name="Icon" xmlns="http://www.w3.org/2000/svg" viewBox="0 0 36 36">
  <title>Website icon - Black</title>
<desc>internet, organization, organize, browser, access, log in, connections, development, UX, UI, online, software and technologies</desc>
<metadata><?xpacket begin="﻿" id="W5M0MpCehiHzreSzNTczkc9d"?>
<x:xmpmeta xmlns:x="adobe:ns:meta/" x:xmptk="Adobe XMP Core 8.0-c001 1.000000, 0000/00/00-00:00:00        ">
   <rdf:RDF xmlns:rdf="http://www.w3.org/1999/02/22-rdf-syntax-ns#">
      <rdf:Description rdf:about=""
            xmlns:xmp="http://ns.adobe.com/xap/1.0/"
            xmlns:dc="http://purl.org/dc/elements/1.1/"
            xmlns:cq="http://www.day.com/jcr/cq/1.0"
            xmlns:tiff="http://ns.adobe.com/tiff/1.0/">
         <xmp:rhcc-effective-on>2023-12-08T17:44:30.956Z</xmp:rhcc-effective-on>
         <xmp:rhcc-metadata-complete-moderator>pending</xmp:rhcc-metadata-complete-moderator>
         <xmp:rhcc-translation-id>TRA78566629-4fbc-48e9-aeef-6d01228e7696</xmp:rhcc-translation-id>
         <xmp:brand-content-type>Icon</xmp:brand-content-type>
         <xmp:CreateDate>2023-12-08T17:44:30.956Z</xmp:CreateDate>
         <xmp:rhcc-effective-on-set-on-upload>true</xmp:rhcc-effective-on-set-on-upload>
         <xmp:rhcc-metadata-complete-uploader>pending</xmp:rhcc-metadata-complete-uploader>
         <xmp:rhcc-file-last-modified>2023-12-08T17:45:18.297Z</xmp:rhcc-file-last-modified>
         <xmp:rhcc-audience>rhcc-audience:internal</xmp:rhcc-audience>
         <xmp:rhcc-rights-restricted>no</xmp:rhcc-rights-restricted>
         <xmp:brand-content-subtype>Icon</xmp:brand-content-subtype>
         <xmp:rhcc-derivative-id>DER78566629-4fbc-48e9-aeef-6d01228e7696</xmp:rhcc-derivative-id>
         <xmp:brand-logo-color>Black</xmp:brand-logo-color>
         <xmp:rhcc-notify-portal-subscribers-on-change>yes</xmp:rhcc-notify-portal-subscribers-on-change>
         <dc:format>image/svg+xml</dc:format>
         <dc:modified>2024-02-09T20:19:11.936Z</dc:modified>
         <dc:title>
            <rdf:Alt>
               <rdf:li xml:lang="x-default">Website icon - Black</rdf:li>
            </rdf:Alt>
         </dc:title>
         <dc:description>
            <rdf:Alt>
               <rdf:li xml:lang="x-default">internet, organization, organize, browser, access, log in, connections, development, UX, UI, online, software and technologies</rdf:li>
            </rdf:Alt>
         </dc:description>
         <cq:lastReplicationAction_scene7>Activate</cq:lastReplicationAction_scene7>
         <cq:lastReplicationAction_publish>Activate</cq:lastReplicationAction_publish>
         <cq:lastReplicated_publish>2024-02-09T21:56:37.874Z</cq:lastReplicated_publish>
         <cq:lastReplicatedBy>workflow-process-service</cq:lastReplicatedBy>
         <cq:lastReplicationAction>Activate</cq:lastReplicationAction>
         <cq:lastReplicatedBy_publish>workflow-process-service</cq:lastReplicatedBy_publish>
         <cq:isDelivered>true</cq:isDelivered>
         <cq:lastReplicated>2024-02-09T21:56:37.874Z</cq:lastReplicated>
         <cq:lastReplicatedBy_scene7>workflow-process-service</cq:lastReplicatedBy_scene7>
         <cq:lastReplicated_scene7>2024-02-09T21:56:37.874Z</cq:lastReplicated_scene7>
         <tiff:ImageLength>36</tiff:ImageLength>
         <tiff:ImageWidth>36</tiff:ImageWidth>
      </rdf:Description>
   </rdf:RDF>
</x:xmpmeta>
                                                                                                    
                                                                                                    
                                                                                                    
                                                                                                    
                                                                                                    
                                                                                                    
                                                                                                    
                                                                                                    
                                                                                                    
                                                                                                    
                                 
<?xpacket end="w"?></metadata>
<g>
    <path d="M10,11.37a.62.62,0,0,0-.61.63.61.61,0,0,0,.61.62.62.62,0,0,0,.63-.62A.63.63,0,0,0,10,11.37Z"/>
    <path d="M8,11.37a.62.62,0,0,0-.61.63.61.61,0,0,0,.61.62A.62.62,0,0,0,8.62,12,.63.63,0,0,0,8,11.37Z"/>
    <g>
      <path d="M31,8.38H5A.62.62,0,0,0,4.38,9V27a.62.62,0,0,0,.62.62H31a.62.62,0,0,0,.62-.62V9A.62.62,0,0,0,31,8.38Zm-.62,18H5.62V9.62H30.38Z"/>
      <path d="M18,15.38H8a.62.62,0,0,0-.62.62v8a.62.62,0,0,0,.62.62H18a.62.62,0,0,0,.62-.62V16A.62.62,0,0,0,18,15.38Zm-.62,8H8.62V16.62h8.76Z"/>
      <path d="M13,12.62H28a.62.62,0,1,0,0-1.24H13a.62.62,0,0,0,0,1.24Z"/>
      <path d="M28,16.38H21a.62.62,0,0,0,0,1.24h7a.62.62,0,0,0,0-1.24Z"/>
      <path d="M28,19.38H21a.62.62,0,0,0,0,1.24h7a.62.62,0,0,0,0-1.24Z"/>
      <path d="M24,22.38H21a.62.62,0,0,0,0,1.24h3a.62.62,0,0,0,0-1.24Z"/>
    </g>
  </g>
</svg>
